**kern	**kern	**dynam
*part1	*part1	*part1
*staff2	*staff1	*
*I"Piano	*	*
*clefF4	*clefG2	*
*k[b-e-]	*k[b-e-]	*
=1	=1	=1
8F#X	8d'L	mf
8r	8a'	.
8r	8cc'J 8dd	.
=	=	=
!	!LO:TX:b:i:t=poco accel.	!
8G	8d'L	.
8r	8g'	.
8r	8b-'J 8dd	.
=	=	=
8En	8c'L	.
8r	8g'	.
8r	8b-'J 8cc	.
=	=	=
8F	8c'L	.
8r	8f'	.
8r	8a'J 8cc	.
=	=	=
8BB-: 8B-:	8d: 8f: 8g: 8dd:	.
8r	8r	.
8r	8r	.
=	=	=
8C: 8B-:	8c: 8en: 8g: 8cc:	.
8r	8r	.
8r	8r	.
=	=	=
[4.FF [4.C	8.AL 8.f	f
.	16AK 16f	.
.	8AJ 8f	.
=	=	=
4.FF] 4.C]	(8c'L 8g	.
.	8A' 8f	.
.	8c'J) 8g	.
=	=	=
*-	*-	*-
!!!system-decoration: {(s1,s2)}
